;FLAVOR:Marlin
;TIME:1864
;Filament used: 1.35548m
;Layer height: 0.2
;MINX:89
;MINY:89
;MINZ:0.2
;MAXX:131
;MAXY:131
;MAXZ:20
;Generated with Cura_SteamEngine 5.0.0
M140 S60
M105
M190 S60
M104 S200
M105
M109 S200
M82 ;absolute extrusion mode
; Ender 3 Custom Start G-code
G92 E0 ; Reset Extruder
G28 ; Home all axes
G1 Z2.0 F3000 ; Move Z Axis up little to prevent scratching of Heat Bed
G1 X0.1 Y20 Z0.3 F5000.0 ; Move to start position
G1 X0.1 Y200.0 Z0.3 F1500.0 E15 ; Draw the first line
G1 X0.4 Y200.0 Z0.3 F5000.0 ; Move to side a little
G1 X0.4 Y20 Z0.3 F1500.0 E30 ; Draw the second line
G92 E0 ; Reset Extruder
G1 Z2.0 F3000 ; Move Z Axis up little to prevent scratching of Heat Bed
G1 X5 Y20 Z0.3 F5000.0 ; Move over to prevent blob squish
G92 E0
G92 E0
G1 F1500 E-6.5
;LAYER_COUNT:100
;LAYER:0
M107
G0 F6000 X92.198 Y92.264 Z0.2
G0 X89.001 Y100.525
;TYPE:SKIRT
G1 F1500 E0
G1 F1200 X89.01 Y99.86 E0.02212
G1 X89.063 Y98.924 E0.0533
G1 X89.195 Y97.995 E0.08451
G1 X89.406 Y97.081 E0.11571
G1 X89.694 Y96.189 E0.14689
G1 X90.057 Y95.324 E0.17809
G1 X90.492 Y94.493 E0.20928
G1 X90.996 Y93.703 E0.24045
G1 X91.566 Y92.958 E0.27165
G1 X92.198 Y92.264 E0.30287
G1 X92.886 Y91.627 E0.33405
G1 X93.626 Y91.051 E0.36524
G1 X94.412 Y90.539 E0.39644
G1 X95.239 Y90.097 E0.42763
G1 X96.101 Y89.727 E0.45883
G1 X96.991 Y89.431 E0.49003
G1 X97.903 Y89.213 E0.52122
G1 X98.83 Y89.072 E0.5524
G1 X99.701 Y89.013 E0.58144
G1 X100.33 Y89 E0.60236
G1 X119.293 Y89 E1.23308
G1 X120.149 Y89.011 E1.26155
G1 X121.085 Y89.065 E1.29273
G1 X122.013 Y89.197 E1.32391
G1 X122.927 Y89.409 E1.35511
G1 X123.819 Y89.698 E1.3863
G1 X124.684 Y90.061 E1.4175
G1 X125.514 Y90.497 E1.44868
G1 X126.305 Y91.002 E1.4799
G1 X127.049 Y91.573 E1.51109
G1 X127.742 Y92.205 E1.54229
G1 X128.379 Y92.893 E1.57347
G1 X128.954 Y93.634 E1.60467
G1 X129.465 Y94.42 E1.63585
G1 X129.907 Y95.248 E1.66707
G1 X130.276 Y96.11 E1.69825
G1 X130.571 Y97 E1.72944
G1 X130.789 Y97.912 E1.76063
G1 X130.929 Y98.84 E1.79184
G1 X130.987 Y99.701 E1.82054
G1 X131 Y100.33 E1.84147
G1 X130.999 Y119.4 E2.47574
G1 X130.99 Y120.127 E2.49992
G1 X130.939 Y121.064 E2.53113
G1 X130.807 Y121.992 E2.56231
G1 X130.598 Y122.906 E2.59349
G1 X130.311 Y123.799 E2.62469
G1 X129.949 Y124.665 E2.65591
G1 X129.515 Y125.496 E2.68709
G1 X129.011 Y126.287 E2.71828
G1 X128.442 Y127.032 E2.74946
G1 X127.811 Y127.727 E2.78069
G1 X127.124 Y128.365 E2.81187
G1 X126.385 Y128.942 E2.84305
G1 X125.599 Y129.454 E2.87425
G1 X124.773 Y129.897 E2.90543
G1 X123.911 Y130.269 E2.93665
G1 X123.022 Y130.565 E2.96782
G1 X122.11 Y130.785 E2.99902
G1 X121.183 Y130.926 E3.03021
G1 X120.299 Y130.987 E3.05968
G1 X119.67 Y131 E3.0806
G1 X100.565 Y130.999 E3.71604
G1 X99.867 Y130.99 E3.73926
G1 X98.931 Y130.938 E3.77044
G1 X98.002 Y130.806 E3.80165
G1 X97.088 Y130.596 E3.83284
G1 X96.195 Y130.309 E3.86403
G1 X95.33 Y129.946 E3.89524
G1 X94.499 Y129.512 E3.92642
G1 X93.708 Y129.008 E3.95761
G1 X92.963 Y128.438 E3.98881
G1 X92.269 Y127.807 E4.02001
G1 X91.632 Y127.12 E4.05117
G1 X91.055 Y126.38 E4.08238
G1 X90.543 Y125.594 E4.11358
G1 X90.1 Y124.767 E4.14478
G1 X89.729 Y123.906 E4.17597
G1 X89.433 Y123.016 E4.20716
G1 X89.214 Y122.104 E4.23836
G1 X89.073 Y121.177 E4.26954
G1 X89.013 Y120.288 E4.29918
G1 X89 Y119.658 E4.32014
G1 X89.001 Y100.525 E4.9565
G0 F6000 X89.401 Y100.531
G1 F1200 X89.41 Y99.866 E4.97862
G1 X89.462 Y98.946 E5.00927
G1 X89.594 Y98.035 E5.03989
G1 X89.805 Y97.139 E5.0705
G1 X90.092 Y96.264 E5.10113
G1 X90.455 Y95.418 E5.13175
G1 X90.889 Y94.606 E5.16237
G1 X91.392 Y93.835 E5.19299
G1 X91.961 Y93.111 E5.22362
G1 X92.589 Y92.439 E5.25421
G1 X93.274 Y91.823 E5.28485
G1 X94.01 Y91.27 E5.31547
G1 X94.791 Y90.782 E5.3461
G1 X95.611 Y90.364 E5.37671
G1 X96.465 Y90.019 E5.40735
G1 X97.345 Y89.749 E5.43796
G1 X98.245 Y89.557 E5.46857
G1 X99.159 Y89.443 E5.49921
G1 X99.712 Y89.413 E5.51763
G1 X100.33 Y89.4 E5.53819
G1 X119.293 Y89.4 E6.1689
G1 X120.143 Y89.411 E6.19717
G1 X121.062 Y89.464 E6.22779
G1 X121.973 Y89.597 E6.25841
G1 X122.869 Y89.808 E6.28903
G1 X123.743 Y90.096 E6.31963
G1 X124.59 Y90.459 E6.35028
G1 X125.401 Y90.894 E6.38089
G1 X126.171 Y91.398 E6.4115
G1 X126.895 Y91.967 E6.44213
G1 X127.567 Y92.597 E6.47276
G1 X128.182 Y93.282 E6.50338
G1 X128.735 Y94.018 E6.534
G1 X129.222 Y94.799 E6.56461
G1 X129.639 Y95.62 E6.59524
G1 X129.984 Y96.474 E6.62588
G1 X130.253 Y97.354 E6.65648
G1 X130.445 Y98.255 E6.68712
G1 X130.558 Y99.168 E6.71772
G1 X130.596 Y100.032 E6.74648
G1 X130.599 Y119.395 E7.3905
G1 X130.59 Y120.122 E7.41468
G1 X130.539 Y121.041 E7.4453
G1 X130.408 Y121.953 E7.47594
G1 X130.198 Y122.849 E7.50655
G1 X129.912 Y123.724 E7.53717
G1 X129.551 Y124.571 E7.56779
G1 X129.117 Y125.383 E7.59841
G1 X128.615 Y126.155 E7.62904
G1 X128.047 Y126.88 E7.65967
G1 X127.419 Y127.553 E7.69029
G1 X126.735 Y128.169 E7.7209
G1 X126 Y128.723 E7.75152
G1 X125.22 Y129.212 E7.78214
G1 X124.4 Y129.631 E7.81276
G1 X123.547 Y129.977 E7.84338
G1 X122.667 Y130.248 E7.87401
G1 X121.767 Y130.441 E7.90462
G1 X120.853 Y130.556 E7.93526
G1 X120.288 Y130.587 E7.95408
G1 X119.67 Y130.6 E7.97464
G1 X100.57 Y130.599 E8.60991
G1 X99.872 Y130.59 E8.63313
G1 X98.953 Y130.538 E8.66374
G1 X98.042 Y130.407 E8.69435
G1 X97.146 Y130.197 E8.72496
G1 X96.271 Y129.91 E8.75559
G1 X95.424 Y129.548 E8.78623
G1 X94.612 Y129.114 E8.81685
G1 X93.841 Y128.612 E8.84745
G1 X93.116 Y128.044 E8.87808
G1 X92.443 Y127.415 E8.90872
G1 X91.828 Y126.731 E8.93931
G1 X91.274 Y125.996 E8.96993
G1 X90.786 Y125.215 E9.00056
G1 X90.367 Y124.395 E9.03118
G1 X90.021 Y123.542 E9.0618
G1 X89.751 Y122.662 E9.09242
G1 X89.558 Y121.761 E9.12306
G1 X89.444 Y120.848 E9.15366
G1 X89.413 Y120.277 E9.17268
G1 X89.4 Y119.658 E9.19328
G1 X89.401 Y100.531 E9.82944
G0 F6000 X89.801 Y100.536
G1 F1200 X89.81 Y99.871 E9.85156
G1 X89.862 Y98.969 E9.88161
G1 X89.994 Y98.076 E9.91164
G1 X90.204 Y97.198 E9.94166
G1 X90.491 Y96.341 E9.97172
G1 X90.853 Y95.514 E10.00175
G1 X91.286 Y94.722 E10.03177
G1 X91.788 Y93.971 E10.06182
G1 X92.355 Y93.267 E10.09188
G1 X92.981 Y92.617 E10.1219
G1 X93.662 Y92.024 E10.15193
G1 X94.394 Y91.494 E10.18199
G1 X95.169 Y91.031 E10.21201
G1 X95.982 Y90.638 E10.24205
G1 X96.827 Y90.318 E10.2721
G1 X97.696 Y90.075 E10.30211
G1 X98.584 Y89.909 E10.33216
G1 X99.723 Y89.813 E10.37018
G1 X100.33 Y89.8 E10.39037
G1 X119.293 Y89.8 E11.02108
G1 X120.137 Y89.811 E11.04916
G1 X121.039 Y89.864 E11.07921
G1 X121.932 Y89.996 E11.10923
G1 X122.81 Y90.207 E11.13927
G1 X123.666 Y90.495 E11.16931
G1 X124.493 Y90.857 E11.19933
G1 X125.285 Y91.292 E11.22939
G1 X126.036 Y91.794 E11.25943
G1 X126.739 Y92.361 E11.28947
G1 X127.389 Y92.988 E11.31951
G1 X127.981 Y93.67 E11.34954
G1 X128.511 Y94.401 E11.37958
G1 X128.973 Y95.177 E11.40961
G1 X129.366 Y95.99 E11.43965
G1 X129.684 Y96.835 E11.46968
G1 X129.927 Y97.705 E11.49972
G1 X130.092 Y98.593 E11.52976
G1 X130.187 Y99.723 E11.56748
G1 X130.2 Y100.33 E11.58767
G1 X130.199 Y119.39 E12.22161
G1 X130.19 Y120.117 E12.24579
G1 X130.139 Y121.019 E12.27584
G1 X130.008 Y121.913 E12.30589
G1 X129.799 Y122.791 E12.33591
G1 X129.513 Y123.648 E12.36596
G1 X129.152 Y124.476 E12.396
G1 X128.72 Y125.268 E12.42601
G1 X128.219 Y126.02 E12.45606
G1 X127.653 Y126.724 E12.48611
G1 X127.028 Y127.375 E12.51612
G1 X126.347 Y127.969 E12.54618
G1 X125.616 Y128.5 E12.57623
G1 X124.842 Y128.964 E12.60624
G1 X124.029 Y129.358 E12.63629
G1 X123.185 Y129.678 E12.66631
G1 X122.315 Y129.923 E12.69638
G1 X121.428 Y130.089 E12.72639
G1 X120.277 Y130.187 E12.76481
G1 X119.67 Y130.2 E12.785
G1 X100.575 Y130.199 E13.42011
G1 X99.877 Y130.19 E13.44332
G1 X98.976 Y130.139 E13.47334
G1 X98.082 Y130.007 E13.5034
G1 X97.204 Y129.798 E13.53342
G1 X96.347 Y129.511 E13.56347
G1 X95.52 Y129.15 E13.59349
G1 X94.727 Y128.717 E13.62354
G1 X93.976 Y128.216 E13.65356
G1 X93.272 Y127.65 E13.68361
G1 X92.621 Y127.024 E13.71365
G1 X92.028 Y126.343 E13.74368
G1 X91.498 Y125.612 E13.77371
G1 X91.034 Y124.837 E13.80376
G1 X90.64 Y124.024 E13.8338
G1 X90.32 Y123.18 E13.86383
G1 X90.076 Y122.31 E13.89388
G1 X89.91 Y121.422 E13.92393
G1 X89.813 Y120.267 E13.96248
G1 X89.8 Y119.658 E13.98274
G1 X89.801 Y100.536 E14.61874
G1 F1500 E8.11874
;MESH:xyzCalibration_cube.stl
G0 F6000 X99.335 Y100.536
G0 X100.43 Y100.536
G0 X100.58 Y119.42
G1 F1500 E14.61874
G0 F6000 X100.2 Y119.8
;TYPE:WALL-OUTER
G1 F1200 X119.8 Y119.8 E15.27064
G1 X119.8 Y110 E15.59658
G1 X119.8 Y100.2 E15.92253
G1 X100.2 Y100.2 E16.57443
G1 X100.2 Y119.8 E17.22633
G0 F6000 X100.6 Y119.4
;TYPE:WALL-INNER
G1 F1200 X119.4 Y119.4 E17.85162
G1 X119.4 Y110 E18.16427
G1 X119.4 Y100.6 E18.47691
G1 X100.6 Y100.6 E19.1022
G1 X100.6 Y119.4 E19.72749
G0 F6000 X100.96 Y119.04
;TYPE:SKIN
G1 F1200 X119.04 Y119.04 E20.32884
G1 X119.04 Y110 E20.62951
G1 X119.04 Y100.96 E20.93018
G1 X100.96 Y100.96 E21.53152
G1 X100.96 Y119.04 E22.13287
G0 F6000 X101.302 Y118.839
G1 F1200 X101.159 Y118.695 E22.13962
G0 F6000 X101.159 Y118.129
G1 F1200 X101.868 Y118.839 E22.17299
G0 F6000 X102.434 Y118.839
G1 F1200 X101.159 Y117.564 E22.23296
G0 F6000 X101.159 Y116.998
G1 F1200 X103 Y118.839 E22.31956
G0 F6000 X103.565 Y118.839
G1 F1200 X101.159 Y116.432 E22.43275
G0 F6000 X101.159 Y115.867
G1 F1200 X104.131 Y118.839 E22.57254
G0 F6000 X104.697 Y118.839
G1 F1200 X101.159 Y115.301 E22.73896
G0 F6000 X101.159 Y114.735
G1 F1200 X105.262 Y118.839 E22.93198
G0 F6000 X105.828 Y118.839
G1 F1200 X101.159 Y114.17 E23.15159
G0 F6000 X101.159 Y113.604
G1 F1200 X106.394 Y118.839 E23.39783
G0 F6000 X106.959 Y118.839
G1 F1200 X101.159 Y113.038 E23.67067
G0 F6000 X101.159 Y112.473
G1 F1200 X107.525 Y118.839 E23.97011
G0 F6000 X108.091 Y118.839
G1 F1200 X101.159 Y111.907 E24.29617
G0 F6000 X101.159 Y111.341
G1 F1200 X108.656 Y118.839 E24.64883
G0 F6000 X109.222 Y118.839
G1 F1200 X101.159 Y110.776 E25.02808
G0 F6000 X101.159 Y110.21
G1 F1200 X109.788 Y118.839 E25.43397
G0 F6000 X110.353 Y118.839
G1 F1200 X101.159 Y109.644 E25.86645
G0 F6000 X101.159 Y109.078
G1 F1200 X110.919 Y118.839 E26.32555
G0 F6000 X111.485 Y118.839
G1 F1200 X101.159 Y108.513 E26.81125
G0 F6000 X101.159 Y107.947
G1 F1200 X112.05 Y118.839 E27.32356
G0 F6000 X112.616 Y118.839
G1 F1200 X101.159 Y107.381 E27.86248
G0 F6000 X101.159 Y106.816
G1 F1200 X113.182 Y118.839 E28.42801
G0 F6000 X113.748 Y118.839
G1 F1200 X101.159 Y106.25 E29.02016
G0 F6000 X101.159 Y105.684
G1 F1200 X114.313 Y118.839 E29.6389
G0 F6000 X114.879 Y118.839
G1 F1200 X101.159 Y105.119 E30.28425
G0 F6000 X101.159 Y104.553
G1 F1200 X115.445 Y118.839 E30.95622
G0 F6000 X116.01 Y118.839
G1 F1200 X101.159 Y103.987 E31.65479
G0 F6000 X101.159 Y103.422
G1 F1200 X116.576 Y118.839 E32.37996
G0 F6000 X117.142 Y118.839
G1 F1200 X101.159 Y102.856 E33.13175
G0 F6000 X101.159 Y102.29
G1 F1200 X117.707 Y118.839 E33.91014
G0 F6000 X118.273 Y118.839
G1 F1200 X101.159 Y101.725 E34.71513
G0 F6000 X101.159 Y101.159
G1 F1200 X118.839 Y118.839 E35.54674
G0 F6000 X118.839 Y118.274
G1 F1200 X101.725 Y101.16 E36.35173
G0 F6000 X102.291 Y101.16
G1 F1200 X118.839 Y117.708 E37.1301
G0 F6000 X118.839 Y117.142
G1 F1200 X102.857 Y101.16 E37.88184
G0 F6000 X103.422 Y101.16
G1 F1200 X118.839 Y116.577 E38.60701
G0 F6000 X118.839 Y116.011
G1 F1200 X103.988 Y101.16 E39.30556
G0 F6000 X104.554 Y101.16
G1 F1200 X118.839 Y115.445 E39.97748
G0 F6000 X118.839 Y114.88
G1 F1200 X105.119 Y101.16 E40.62283
G0 F6000 X105.685 Y101.16
G1 F1200 X118.839 Y114.314 E41.24155
G0 F6000 X118.839 Y113.748
G1 F1200 X106.251 Y101.16 E41.83365
G0 F6000 X106.816 Y101.16
G1 F1200 X118.839 Y113.183 E42.39918
G0 F6000 X118.839 Y112.617
G1 F1200 X107.382 Y101.16 E42.93808
G0 F6000 X107.948 Y101.16
G1 F1200 X118.839 Y112.051 E43.45036
G0 F6000 X118.839 Y111.485
G1 F1200 X108.514 Y101.16 E43.93601
G0 F6000 X109.079 Y101.16
G1 F1200 X118.839 Y110.92 E44.39509
G0 F6000 X118.839 Y110.354
G1 F1200 X109.645 Y101.16 E44.82755
G0 F6000 X110.211 Y101.16
G1 F1200 X118.839 Y109.788 E45.23339
G0 F6000 X118.839 Y109.223
G1 F1200 X110.776 Y101.16 E45.61265
G0 F6000 X111.342 Y101.16
G1 F1200 X118.839 Y108.657 E45.96528
G0 F6000 X118.839 Y108.091
G1 F1200 X111.908 Y101.16 E46.29129
G0 F6000 X112.473 Y101.16
G1 F1200 X118.839 Y107.526 E46.59073
G0 F6000 X118.839 Y106.96
G1 F1200 X113.039 Y101.16 E46.86355
G0 F6000 X113.605 Y101.16
G1 F1200 X118.839 Y106.394 E47.10974
G0 F6000 X118.839 Y105.829
G1 F1200 X114.17 Y101.16 E47.32935
G0 F6000 X114.736 Y101.16
G1 F1200 X118.839 Y105.263 E47.52235
G0 F6000 X118.839 Y104.697
G1 F1200 X115.302 Y101.16 E47.68871
G0 F6000 X115.867 Y101.16
G1 F1200 X118.839 Y104.132 E47.82851
G0 F6000 X118.839 Y103.566
G1 F1200 X116.433 Y101.16 E47.94168
G0 F6000 X116.999 Y101.16
G1 F1200 X118.839 Y103 E48.02823
G0 F6000 X118.839 Y102.435
G1 F1200 X117.564 Y101.16 E48.0882
G0 F6000 X118.13 Y101.16
G1 F1200 X118.839 Y101.869 E48.12155
G0 F6000 X118.839 Y101.303
G1 F1200 X118.696 Y101.16 E48.12828
G1 F1500 E41.62828
;MESH:NONMESH
G0 F300 X118.696 Y101.16 Z0.4
G0 F6000 X118.696 Y100.7
G0 X100.772 Y100.772
G0 X100.58 Y119.42
G1 F1500 E48.12828
G0 F6000 X100.2 Y119.8
;TIME_ELAPSED:84.682593
;LAYER:1
M106 S85
;TYPE:WALL-OUTER
;MESH:xyzCalibration_cube.stl
G1 F1350 X119.8 Y119.8 E48.78017
G1 X119.8 Y110 E49.10612
G1 X119.8 Y100.2 E49.43207
G1 X100.2 Y100.2 E50.08397
G1 X100.2 Y119.8 E50.73587
G0 F7500 X100.6 Y119.4
;TYPE:WALL-INNER
G1 F1350 X119.4 Y119.4 E51.36116
G1 X119.4 Y110 E51.67381
G1 X119.4 Y100.6 E51.98645
G1 X100.6 Y100.6 E52.61174
G1 X100.6 Y119.4 E53.23703
G0 F7500 X100.96 Y119.04
;TYPE:SKIN
G1 F1350 X119.04 Y119.04 E53.83838
G1 X119.04 Y110 E54.13905
G1 X119.04 Y100.96 E54.43972
G1 X100.96 Y100.96 E55.04106
G1 X100.96 Y119.04 E55.6424
G0 F7500 X100.7 Y119.04
G0 X100.772 Y100.772
G0 X101.355 Y100.7
G0 X101.355 Y101.159
G1 F1350 X101.16 Y101.355 E55.6516
G0 F7500 X101.16 Y101.92
G1 F1350 X101.921 Y101.159 E55.6874
G0 F7500 X102.487 Y101.159
G1 F1350 X101.16 Y102.486 E55.74981
G0 F7500 X101.16 Y103.052
G1 F1350 X103.053 Y101.159 E55.83885
G0 F7500 X103.618 Y101.159
G1 F1350 X101.16 Y103.618 E55.95449
G0 F7500 X101.16 Y104.183
G1 F1350 X104.184 Y101.159 E56.09673
G0 F7500 X104.75 Y101.159
G1 F1350 X101.16 Y104.749 E56.2656
G0 F7500 X101.16 Y105.315
G1 F1350 X105.315 Y101.159 E56.46106
G0 F7500 X105.881 Y101.159
G1 F1350 X101.16 Y105.88 E56.68312
G0 F7500 X101.16 Y106.446
G1 F1350 X106.447 Y101.159 E56.9318
G0 F7500 X107.012 Y101.159
G1 F1350 X101.16 Y107.012 E57.20709
G0 F7500 X101.16 Y107.577
G1 F1350 X107.578 Y101.159 E57.50897
G0 F7500 X108.144 Y101.159
G1 F1350 X101.16 Y108.143 E57.83748
G0 F7500 X101.16 Y108.709
G1 F1350 X108.709 Y101.159 E58.19258
G0 F7500 X109.275 Y101.159
G1 F1350 X101.16 Y109.274 E58.57429
G0 F7500 X101.16 Y109.84
G1 F1350 X109.841 Y101.159 E58.98262
G0 F7500 X110.406 Y101.159
G1 F1350 X101.16 Y110.406 E59.41754
G0 F7500 X101.16 Y110.971
G1 F1350 X110.972 Y101.159 E59.87907
G0 F7500 X111.538 Y101.159
G1 F1350 X101.16 Y111.537 E60.36722
G0 F7500 X101.16 Y112.103
G1 F1350 X112.104 Y101.159 E60.88199
G0 F7500 X112.669 Y101.159
G1 F1350 X101.16 Y112.668 E61.42334
G0 F7500 X101.16 Y113.234
G1 F1350 X113.235 Y101.159 E61.99131
G0 F7500 X113.801 Y101.159
G1 F1350 X101.16 Y113.8 E62.5859
G0 F7500 X101.16 Y114.366
G1 F1350 X114.366 Y101.159 E63.2071
G0 F7500 X114.932 Y101.159
G1 F1350 X101.16 Y114.931 E63.85489
G0 F7500 X101.16 Y115.497
G1 F1350 X115.498 Y101.159 E64.5293
G0 F7500 X116.063 Y101.159
G1 F1350 X101.16 Y116.063 E65.23032
G0 F7500 X101.16 Y116.628
G1 F1350 X116.629 Y101.159 E65.95793
G0 F7500 X117.195 Y101.159
G1 F1350 X101.16 Y117.194 E66.71217
G0 F7500 X101.16 Y117.76
G1 F1350 X117.76 Y101.159 E67.49301
G0 F7500 X118.326 Y101.159
G1 F1350 X101.16 Y118.325 E68.30044
G0 F7500 X101.211 Y118.839
G1 F1350 X118.839 Y101.212 E69.12959
G0 F7500 X118.839 Y101.778
G1 F1350 X101.777 Y118.839 E69.93211
G0 F7500 X102.343 Y118.839
G1 F1350 X118.839 Y102.343 E70.70803
G0 F7500 X118.839 Y102.909
G1 F1350 X102.908 Y118.839 E71.45735
G0 F7500 X103.474 Y118.839
G1 F1350 X118.839 Y103.475 E72.18005
G0 F7500 X118.839 Y104.04
G1 F1350 X104.04 Y118.839 E72.87615
G0 F7500 X104.605 Y118.839
G1 F1350 X118.839 Y104.606 E73.54565
G0 F7500 X118.839 Y105.172
G1 F1350 X105.171 Y118.839 E74.18853
